X:1
T:ENLITEN Style Demo
L:1/8
K:A
Q:1/4=188
R:VALSA POP C/ PIANO E RABECA
M:3/4
| "A2" z8 | z6 | "A" z2  z8 | z6 |
| "GMaj7" z2  z8 | z8 | z8 | z6 |
| "A2" z2  z8 | z6 | "A" z2  z8 | z6 |
| "GMaj7" z2  z8 | z8 | z8 | z6 |
| "A" z2  z8 | E2 A2 B2 | "A2"c6- | c3/2B/2- B2 c2 |
| "Em9"d6 | c6 | "Em7"B6 | A6 |
| "GMaj7"A6- | A6- | "G6"A3 B- B2 | B3 F- F2 |
| "Bm7"F2- F3/2E/2- E2 | E6- | "Bm9"E6- | E6- |
| "A"E2  z2  z2 | E2 A2 B3/2c/2- | "A2"c6- | c2 B2 c2 |
| "Em9"d6 | c6- | "Em7"c4- c3/2d/2- | d4 e2 |
| "GMaj7"f6- | f4- f3/2e/2- | "G6"e6- | e4 A2 |
| "Bm7"A6- | A2- A3/2e/2- e2 | "E9sus"e6- | "E9sus"e2- "E"e4 |
| "A"e6 | a6- | a6- | a2 g2 a2 |
| "F#m7"b6 | a6- | "E"a6- | "F#m"a2 g2 a2 |
| "D2"b6 | a6 | "Dsus"e6 | "D"a6 |
| "E7sus"b6- | b6- | "E"b6- | b6 |
| "A"e6 | a6- | a6- | a2 g2 a2 |
| "F#m7"b6- | b2 c'2- c'3/2a/2- | "E"a6- | "F#m"a2 g2 a2 |
| "D2"b3 a- a2 | e6 | "Dsus"a6 | "D"e2- e3/2d/2- d2 |
| "E7sus"e6- | e6- | "E"e6- | "E"e2- "E9sus"e4 |
| "A2" z8 | z8 |

